X:279
T:Disa-polskan
C:August Bohlin
O:Uppsala, Uppland
B:Melodier från Upplands bruk och Fyris bygder häfte 2, nr. 15
R:Polska
Z:Nils L
M: 3/4
L: 1/16
K: D
f2af d2fd (AB)AF | G2BG (FA)GF (EG)FE | (DE)FG (AB)cd (ef)ge | f2af d2fd A2a2 | 
f2af d2fd (AB)AF | G2BG (FA)GF (EG)FE | (DE)FG (AB)cd (ef)ge | (ag)ec d6 z2 ::
A,2CE A,2CE G2F2 | D2FA D2FA =c2B2 | E2^GB E2GB d2c2 | 
(Ac)ec (Ac)ec A2>>F2 | (DE)FG (AB)cd (ef)ge | (ag)ec d6 z2 :|
(:musicend:)
(:music:)
